X: 06057
T: MISS BRINTON'S
C: Bob McQuillen 5 Nov 82
B: Bob's Note Book 6 #57
%R: jig
Z: 2021 John Chambers <jc:trillian.mit.edu>
M: 6/8
L: 1/8
K: D
F/E/ \
| DFA dfe | dBd A2F | EFG Bef | ded c2A |\
| dfd ecA | BGB A2G | FAd cde | fdd d2 :|
|: e \
| f2f efd | cBA A2B/c/ | d2d cBA | BGE E2F/E/ |\
| D2F EFG | A2d cde | fdf agf | e3 d2 :|
%%begintext align
%% I think it's
%% about time I found this tune for an old
%% friend - Erica Brinton from up Hanover
%% way has been coming to dances for such a
%% long while, and don't you think she should
%% have her own tune? I do! Hope you like
%% it, Erica!
%%endtext

%%sep 1 1 500

%%sep 1 1 500

